X: 19368
T: Jack's Maggot
R: barndance
M: 4/4
K: Dmajor
dc|d2D2F2A2|BABcd2e2|fga2d2f2|e3fe2fe|
d2D2F2A2|BABcd2ag|f2d2A2c2|1 d4d2:|2 d4defg||
|:a2f4a2|f2d4ef|gfedc2d2|e6fg|
a2f2d2f2|A2d2f2e2|d4e3d|1 d4 defg:|2 d6||

